!!!SOCIAL_FUNCTION:	bird dance songs
!!!PDT:	1932
!!!OTL: No_112_Bird_Dance_Song_(a).krn
!!!REG: Southwest
!!!LANG: Non-Tone
!!!LING_GROUP: Yuman-Cochimi
**kern
*staff1
=1-
=
*clefF4
*k[b-e-a-]
*M2/4
8E-\L
8E-\J
8.E-/L
16C/Jk
=2
16C/LL
16C/
16C/
16C/JJ
8C/L
16BB-/Jk
16r
=3
8E-\L
8E-\J
8.E-\L
16E-\Jk
=4
16F\LL
16G\
16G\
16G\JJ
8.G\L
16E-\Jk
=5
8F\L
16F\L
16G\JJ
8.E-/L
16C/Jk
=6
16C/LL
16C/
16C/
16C/JJ
8C/L
16C/Jk
16r
=7:|!
8E-\L
8E-\J
8.E-/L
16C/Jk
=8
16C/LL
16C/
16C/
16C/JJ
8C/L
16C/Jk
16r
=9
8E-\L
8E-\J
8E-\
16r
16B-\
=10
16B-\LL
16B-\
16c\
16c\JJ
8c\L
8G\J
=11
8c\L
8B-\J
8.G\L
16F\Jk
=12
16F\LL
16G\
16G\
16G\JJ
8G\L
8E-\J
=13
8F\L
16F\L
16G\JJ
8.E-/L
16C/Jk
=14
16C/LL
16C/
16C/
16C/JJ
8C/L
16C/Jk
16r
=15
8E-\L
8E-\J
8.E-/L
16C/Jk
=16
16C/LL
16C/
16C/
16C/JJ
8C/L
16BB-/Jk
16r
=17
8E-\L
8E-\J
8.E-\L
16E-\Jk
=18
16F\LL
16G\
16G\
16G\JJ
8G\L
8E-\J
=19
8F\L
16F\L
16G\JJ
8.E-/L
16C/Jk
=20
16C/LL
16C/
16C/
16C/JJ
8C/L
16BB-/Jk
16r
==
*-
